src/assets/foodIcons/hot-dog-icon.svg

<svg width="32" class="iconPrimary" height="40" viewBox="0 0 32 40" fill="none" xmlns="http://www.w3.org/2000/svg">
<path d="M31 26.2035C31.0016 25.5715 30.878 24.9453 30.6361 24.3614C30.3943 23.7774 30.0391 23.2471 29.5911 22.8013L13.1986 6.40514C12.3594 5.56891 11.2416 5.07118 10.0587 5.00707C8.87583 4.94295 7.71079 5.31693 6.78619 6.05756C6.13395 5.5856 5.33489 5.36149 4.53236 5.42544C3.72983 5.48939 2.97634 5.83722 2.40707 6.40653C1.8378 6.97584 1.48999 7.72937 1.42604 8.53195C1.36209 9.33453 1.58619 10.1336 2.05813 10.7859C1.31676 11.7104 0.942541 12.876 1.00717 14.0593C1.07179 15.2426 1.57072 16.3604 2.40835 17.1987L18.8009 33.5922C19.6393 34.4293 20.7569 34.9279 21.9399 34.9928C23.1229 35.0576 24.2883 34.6842 25.2132 33.9438C25.8657 34.4144 26.6645 34.6374 27.4664 34.5728C28.2683 34.5082 29.021 34.1601 29.5897 33.5911C30.1585 33.022 30.506 32.269 30.5702 31.467C30.6344 30.665 30.4109 29.8663 29.9399 29.2141C30.6284 28.362 31.0026 27.299 31 26.2035ZM12.3952 7.21125L28.7877 23.6047C29.4073 24.2244 29.7851 25.0451 29.8531 25.9188C29.9212 26.7925 29.6748 27.6617 29.1586 28.3699L7.63035 6.84094C8.33875 6.32565 9.20767 6.07987 10.081 6.14774C10.9544 6.21561 11.7749 6.59269 12.3952 7.21125ZM19.6042 32.7887L3.21174 16.3952C2.59214 15.7755 2.21428 14.9549 2.14627 14.0812C2.07826 13.2075 2.32456 12.3383 2.84079 11.6301L24.3691 33.159C23.6607 33.6743 22.7917 33.9201 21.9184 33.8523C21.0451 33.7844 20.2245 33.4073 19.6042 32.7887ZM28.7877 32.7887C28.3651 33.2099 27.7929 33.4464 27.1963 33.4464C26.5997 33.4464 26.0274 33.2099 25.6049 32.7887L3.21441 10.3969C3.00525 10.1881 2.83927 9.9401 2.72593 9.66713C2.6126 9.39416 2.55415 9.10153 2.5539 8.80596C2.5534 8.20904 2.79003 7.63636 3.21174 7.21392C3.63345 6.79147 4.20569 6.55387 4.80258 6.55336C5.39947 6.55286 5.97211 6.78951 6.39453 7.21125L28.785 29.6031C29.2073 30.0254 29.4448 30.5981 29.4453 31.1954C29.4458 31.7926 29.2093 32.3657 28.7877 32.7887Z" fill="currentColor"/>
<path d="M22.707 32.6771C22.6913 32.6171 22.6524 32.5658 22.5989 32.5345C22.5454 32.5031 22.4816 32.4943 22.4216 32.51C22.1572 32.5795 21.8793 32.5786 21.6153 32.5074C21.3514 32.4363 21.1107 32.2973 20.9171 32.1043L18.5985 29.7855C18.5768 29.7636 18.551 29.7461 18.5225 29.7342C18.494 29.7222 18.4635 29.716 18.4326 29.7158C18.4017 29.7157 18.3711 29.7216 18.3425 29.7333C18.3139 29.7449 18.2879 29.7621 18.266 29.7839C18.2441 29.8056 18.2266 29.8314 18.2146 29.8599C18.2027 29.8884 18.1964 29.9189 18.1963 29.9498C18.1961 29.9807 18.2021 30.0113 18.2137 30.0399C18.2254 30.0684 18.2426 30.0944 18.2643 30.1164L20.5829 32.4351C20.8343 32.6851 21.1465 32.8653 21.4887 32.9579C21.831 33.0505 22.1914 33.0523 22.5346 32.9632C22.5648 32.956 22.5933 32.9428 22.6185 32.9245C22.6436 32.9061 22.6648 32.883 22.6808 32.8563C22.6969 32.8297 22.7075 32.8001 22.712 32.7693C22.7165 32.7386 22.7148 32.7072 22.707 32.6771Z" fill="currentColor"/>
<path d="M8.80807 7.14044C8.81557 7.17025 8.82886 7.19828 8.8472 7.22295C8.86553 7.24761 8.88855 7.26842 8.91493 7.28419C8.94131 7.29995 8.97053 7.31037 9.00094 7.31484C9.03134 7.3193 9.06233 7.31773 9.09213 7.31022C9.42041 7.22731 9.76211 7.21187 10.0965 7.26483C10.431 7.3178 10.7512 7.43806 11.0378 7.61836C11.0906 7.65075 11.1541 7.66084 11.2144 7.64643C11.2747 7.63202 11.3268 7.59428 11.3592 7.54149C11.392 7.48883 11.4026 7.42532 11.3885 7.3649C11.3745 7.30449 11.337 7.25212 11.2844 7.21931C10.9446 7.00554 10.565 6.86296 10.1685 6.80023C9.77207 6.7375 9.36699 6.75591 8.97784 6.85436C8.9174 6.8698 8.86556 6.9086 8.83373 6.96225C8.80189 7.0159 8.79266 7.07999 8.80807 7.14044Z" fill="currentColor"/>
<path d="M26.046 30.1813C26.06 30.0977 26.0768 30.0129 26.0928 29.9273C26.1122 29.829 26.1316 29.7268 26.1476 29.6279C26.1576 29.5657 26.165 29.5089 26.1703 29.4601C26.2111 29.1299 26.2104 28.7502 25.8916 28.4314C25.5334 28.0731 25.0862 28.1112 24.6959 28.1761C24.6023 28.1914 24.5074 28.2095 24.4125 28.2275C24.3176 28.2456 24.23 28.2623 24.1405 28.277C23.7147 28.3438 23.5156 28.3158 23.3518 28.1527C23.188 27.9896 23.1573 27.7897 23.2275 27.3633C23.2422 27.2744 23.2596 27.1835 23.2769 27.0926C23.2943 27.0017 23.313 26.9021 23.3291 26.8085C23.3959 26.4175 23.4313 25.971 23.0731 25.6127C22.7148 25.2544 22.271 25.2932 21.8774 25.3574C21.7845 25.3727 21.6896 25.3908 21.5953 25.4088C21.5011 25.4269 21.4122 25.4443 21.3226 25.459C20.8962 25.5258 20.697 25.4977 20.5339 25.334C20.3709 25.1702 20.3388 24.9717 20.4096 24.5446C20.4243 24.4557 20.4417 24.3648 20.4584 24.2739C20.4751 24.183 20.4952 24.0834 20.5106 23.9898C20.5774 23.5994 20.6135 23.1529 20.2552 22.7947C19.897 22.4364 19.4498 22.4745 19.0588 22.5387C18.9659 22.554 18.8704 22.5721 18.7755 22.5908C18.6805 22.6095 18.5937 22.6256 18.5041 22.6403C18.0777 22.7071 17.8785 22.6784 17.7154 22.5153C17.5523 22.3522 17.5203 22.1523 17.5904 21.7259C17.6051 21.6363 17.6225 21.5454 17.6406 21.4545C17.6586 21.3636 17.6767 21.264 17.692 21.1711C17.7589 20.7807 17.795 20.3336 17.4367 19.9753C17.0785 19.617 16.6306 19.6551 16.2403 19.72C16.1467 19.7353 16.0518 19.7534 15.9569 19.7714C15.862 19.7895 15.7745 19.8062 15.6856 19.8209C15.2591 19.8877 15.06 19.8597 14.8969 19.6966C14.7338 19.5335 14.7011 19.3336 14.7719 18.9045C14.7866 18.8149 14.804 18.724 14.8214 18.6331C14.8387 18.5422 14.8575 18.4426 14.8728 18.3497C14.9397 17.9587 14.9758 17.5122 14.6175 17.1539C14.2593 16.7957 13.8121 16.8338 13.4211 16.8986C13.3289 16.9133 13.2346 16.9313 13.1397 16.9494C13.0448 16.9674 12.9566 16.9848 12.8664 16.9995C12.44 17.0697 12.2408 17.0383 12.0777 16.8745C11.9146 16.7108 11.8825 16.5123 11.9527 16.0858C11.9674 15.9962 11.9855 15.9053 12.0028 15.8138C12.0202 15.7222 12.0389 15.6239 12.0543 15.5304C12.1211 15.14 12.1572 14.6935 11.799 14.3352C11.4407 13.977 10.9936 14.0151 10.6026 14.0792C10.509 14.0946 10.4141 14.1126 10.3192 14.1307C10.2243 14.1487 10.1367 14.1655 10.0478 14.1802C9.62143 14.247 9.42225 14.2189 9.2585 14.0558C9.09475 13.8927 9.06334 13.6929 9.13418 13.2664C9.14889 13.1769 9.16627 13.086 9.18297 12.9991C9.19968 12.9122 9.21973 12.8079 9.23511 12.7143C9.30194 12.324 9.33804 11.8775 8.97912 11.5185C8.6202 11.1596 8.17707 11.1984 7.78273 11.2632C7.68983 11.2779 7.59559 11.296 7.50068 11.314C7.40577 11.332 7.31755 11.3494 7.22799 11.3641C6.80156 11.431 6.60239 11.4022 6.43931 11.2391C6.27622 11.076 6.24414 10.8762 6.31432 10.4497C6.32902 10.3602 6.3464 10.2699 6.36311 10.1824C6.37982 10.0948 6.39987 9.99121 6.41524 9.89697C6.48208 9.50661 6.51817 9.05944 6.15926 8.70117C6.13731 8.67923 6.11126 8.66182 6.08259 8.64995C6.05393 8.63807 6.0232 8.63196 5.99216 8.63196C5.96113 8.63196 5.9304 8.63807 5.90173 8.64995C5.87306 8.66182 5.84701 8.67923 5.82507 8.70117C5.80313 8.72312 5.78572 8.74917 5.77385 8.77784C5.76197 8.80651 5.75586 8.83724 5.75586 8.86828C5.75586 8.89931 5.76197 8.93004 5.77385 8.95871C5.78572 8.98739 5.80313 9.01344 5.82507 9.03538C5.98882 9.19914 6.02024 9.39833 5.95006 9.82478C5.93535 9.91434 5.91798 10.0059 5.9006 10.0975C5.88322 10.1891 5.86451 10.2867 5.84913 10.3796C5.7823 10.7699 5.7462 11.2171 6.10512 11.576C6.46404 11.935 6.90717 11.8955 7.30084 11.832C7.39441 11.8166 7.48999 11.7979 7.5849 11.7799C7.6798 11.7618 7.76669 11.7451 7.85224 11.7304C8.27867 11.6636 8.47784 11.6917 8.64159 11.8554C8.80534 12.0192 8.83676 12.2184 8.76658 12.6448C8.75187 12.7344 8.7345 12.826 8.71712 12.9169C8.69974 13.0078 8.68103 13.1067 8.66565 13.1996C8.59882 13.5899 8.56272 14.0371 8.92097 14.3961C9.27922 14.755 9.72302 14.7156 10.1167 14.6514C10.2103 14.636 10.3052 14.618 10.4001 14.5999C10.495 14.5819 10.5825 14.5652 10.6721 14.5505C11.0985 14.4836 11.2977 14.5117 11.4615 14.6755C11.6252 14.8392 11.656 15.0377 11.5858 15.4635C11.5711 15.5531 11.5537 15.644 11.5363 15.7356C11.5189 15.8271 11.5002 15.9254 11.4848 16.019C11.418 16.4093 11.3819 16.8565 11.7402 17.2148C12.0984 17.573 12.5422 17.5349 12.9359 17.4708C13.0295 17.4547 13.1257 17.4367 13.2213 17.4186C13.3169 17.4006 13.4017 17.3839 13.4886 17.3692C13.9157 17.299 14.1142 17.3304 14.278 17.4941C14.4417 17.6579 14.4731 17.8564 14.403 18.2829C14.3883 18.3724 14.3709 18.4633 14.3528 18.5549C14.3348 18.6465 14.3167 18.7448 14.3014 18.8377C14.2345 19.2287 14.1984 19.6752 14.5574 20.0341C14.9163 20.3931 15.3594 20.3536 15.7524 20.2895C15.846 20.2741 15.9409 20.256 16.0358 20.238C16.1307 20.2199 16.2183 20.2032 16.3078 20.1885C16.7342 20.1177 16.9334 20.1498 17.0972 20.3128C17.2609 20.4759 17.2917 20.6751 17.2215 21.1016C17.2068 21.1911 17.1894 21.282 17.172 21.373C17.1547 21.4639 17.1359 21.5634 17.1206 21.657C17.0537 22.0474 17.017 22.4939 17.3759 22.8528C17.7348 23.2118 18.1779 23.173 18.5709 23.1082C18.6645 23.0928 18.7594 23.0747 18.855 23.0567C18.9506 23.0386 19.0368 23.0219 19.1263 23.0072C19.5528 22.9404 19.7519 22.9685 19.9157 23.1315C20.0794 23.2946 20.1102 23.4945 20.04 23.9203C20.0253 24.0105 20.0079 24.1014 19.9906 24.193C19.9732 24.2846 19.9545 24.3821 19.9391 24.4757C19.8723 24.8661 19.8362 25.3132 20.1944 25.6715C20.5527 26.0298 20.9965 25.991 21.3895 25.9269C21.4837 25.9115 21.5786 25.8934 21.6742 25.8754C21.7698 25.8573 21.856 25.8406 21.9449 25.8259C22.3713 25.7557 22.5705 25.7872 22.7336 25.9502C22.8966 26.1133 22.9287 26.3125 22.8585 26.739C22.8438 26.8285 22.8265 26.9201 22.8091 27.011C22.7917 27.1019 22.7723 27.2008 22.7569 27.2938C22.6901 27.6848 22.654 28.1313 23.0123 28.4902C23.3705 28.8492 23.8143 28.8097 24.208 28.7456C24.3016 28.7302 24.3965 28.7121 24.4914 28.6941C24.5863 28.676 24.6738 28.6593 24.7634 28.6446C25.1898 28.5738 25.389 28.6059 25.5521 28.7689C25.6978 28.9147 25.7372 29.0878 25.6965 29.4133C25.6918 29.4581 25.6851 29.5062 25.6764 29.561C25.6624 29.6533 25.643 29.7508 25.6249 29.8451C25.6069 29.9393 25.5902 30.0236 25.5761 30.1125C25.5093 30.5035 25.4725 30.9506 25.8315 31.3096C25.8758 31.3535 25.9357 31.3779 25.9981 31.3776C26.0604 31.3773 26.1201 31.3522 26.164 31.3079C26.2078 31.2636 26.2323 31.2037 26.232 31.1413C26.2317 31.0789 26.2066 31.0193 26.1623 30.9754C26.0072 30.8076 25.9758 30.6084 26.046 30.1813Z" fill="currentColor"/>
</svg>

<svg xmlns="http://www.w3.org/2000/svg" width="32" height="40" fill="none" class="iconPrimary" viewBox="0 0 32 40">
    <path fill="currentColor" d="M31 26.203a4.782 4.782 0 0 0-1.409-3.402L13.2 6.405a4.818 4.818 0 0 0-6.413-.347 3.386 3.386 0 0 0-4.728 4.728 4.813 4.813 0 0 0 .35 6.413l16.393 16.393a4.816 4.816 0 0 0 6.412.352 3.387 3.387 0 0 0 4.727-4.73 4.772 4.772 0 0 0 1.06-3.01ZM12.395 7.211l16.393 16.394a3.676 3.676 0 0 1 .37 4.765L7.63 6.84a3.681 3.681 0 0 1 4.765.371Zm7.21 25.578L3.211 16.395a3.676 3.676 0 0 1-.371-4.765L24.369 33.16a3.682 3.682 0 0 1-4.765-.37Zm9.183 0a2.254 2.254 0 0 1-3.183 0L3.215 10.397a2.25 2.25 0 0 1 3.18-3.186l22.39 22.392a2.255 2.255 0 0 1 .003 3.186Z"/>
    <path fill="currentColor" d="M22.707 32.677a.234.234 0 0 0-.285-.167 1.567 1.567 0 0 1-1.505-.406l-2.319-2.319a.234.234 0 0 0-.332-.001.236.236 0 0 0-.002.332l2.319 2.32a2.04 2.04 0 0 0 1.952.527.236.236 0 0 0 .177-.194.233.233 0 0 0-.005-.092ZM8.808 7.14a.234.234 0 0 0 .284.17 2.503 2.503 0 0 1 1.946.308.234.234 0 0 0 .35-.253.234.234 0 0 0-.104-.146 2.966 2.966 0 0 0-2.306-.365.235.235 0 0 0-.17.286ZM26.046 30.181c.014-.083.03-.168.047-.254.02-.098.039-.2.055-.3.01-.061.017-.118.022-.167.041-.33.04-.71-.278-1.029-.359-.358-.806-.32-1.196-.255-.094.015-.189.034-.284.052a10.71 10.71 0 0 1-.271.049c-.426.067-.625.039-.79-.124-.163-.163-.194-.363-.123-.79.014-.089.032-.18.049-.27.017-.091.036-.19.052-.285.067-.39.102-.837-.256-1.195-.358-.359-.802-.32-1.196-.256l-.282.052c-.094.018-.183.035-.272.05-.427.067-.626.039-.79-.125-.162-.164-.194-.362-.123-.79.014-.088.032-.18.048-.27.017-.091.037-.19.053-.284.066-.39.102-.837-.256-1.195-.358-.359-.805-.32-1.196-.256a9.274 9.274 0 0 0-.284.052 8.551 8.551 0 0 1-.27.05c-.427.066-.627.037-.79-.126-.163-.163-.195-.363-.125-.79.015-.089.032-.18.05-.27.019-.091.037-.191.052-.284.067-.39.103-.837-.255-1.196-.359-.358-.806-.32-1.197-.255-.093.015-.188.033-.283.051-.095.018-.183.035-.271.05-.427.067-.626.039-.79-.124-.162-.163-.195-.363-.124-.793.015-.09.032-.18.05-.27.017-.092.036-.191.05-.284.068-.391.104-.838-.255-1.196-.358-.358-.805-.32-1.196-.255-.092.014-.186.032-.281.05-.095.018-.183.036-.274.05-.426.07-.625.04-.788-.124-.163-.164-.195-.363-.125-.79.014-.089.033-.18.05-.271.017-.092.036-.19.051-.284.067-.39.103-.836-.255-1.195-.358-.358-.805-.32-1.196-.256a11.41 11.41 0 0 0-.284.052l-.271.05c-.427.066-.626.038-.79-.125-.163-.163-.195-.363-.124-.79.015-.09.032-.18.049-.267.017-.087.037-.191.052-.285.067-.39.103-.837-.256-1.196-.359-.358-.802-.32-1.196-.255-.093.015-.187.033-.282.051-.095.018-.183.035-.273.05-.426.067-.626.038-.789-.125-.163-.163-.195-.363-.125-.79.015-.089.032-.18.05-.267.016-.087.036-.19.051-.285.067-.39.103-.838-.256-1.196a.236.236 0 0 0-.334.334c.164.164.195.363.125.79-.015.09-.032.18-.05.273-.017.091-.035.189-.05.282-.068.39-.104.837.255 1.196s.802.32 1.196.256c.093-.015.189-.034.284-.052l.267-.05c.427-.066.626-.038.79.125.163.164.195.363.125.79-.015.09-.032.181-.05.272-.017.09-.036.19-.051.283-.067.39-.103.837.255 1.196s.802.32 1.196.255c.093-.015.188-.033.283-.051.095-.018.182-.035.272-.05.426-.066.626-.038.79.125.163.164.194.363.124.788-.015.09-.032.181-.05.273-.017.091-.036.19-.051.283-.067.39-.103.838.255 1.196s.802.32 1.196.256c.094-.016.19-.034.285-.052.096-.018.18-.035.268-.05.427-.07.625-.039.789.125.164.164.195.362.125.789-.015.09-.032.18-.05.272-.018.091-.036.19-.052.283-.066.39-.103.837.256 1.196.36.36.802.32 1.195.256.094-.016.189-.034.284-.052.095-.018.182-.035.272-.05.426-.07.625-.038.79.125.163.163.194.362.123.789-.014.09-.032.18-.049.271-.017.09-.036.19-.051.284-.067.39-.104.837.255 1.196s.802.32 1.195.255c.093-.015.188-.033.284-.051.096-.018.182-.035.271-.05.427-.067.626-.039.79.124.163.164.194.363.124.79-.015.09-.032.18-.05.272-.017.092-.035.19-.05.283-.068.39-.104.837.254 1.196.359.358.803.319 1.196.255.094-.015.189-.034.284-.052l.27-.05c.427-.07.627-.038.79.125.163.163.195.363.124.789-.014.09-.032.181-.049.272-.017.09-.037.19-.052.283-.067.39-.103.837.255 1.196.358.36.802.32 1.196.256.094-.016.189-.034.283-.052.095-.018.183-.035.272-.05.427-.07.626-.038.79.125.145.146.184.319.143.644a2.825 2.825 0 0 1-.02.148c-.014.092-.033.19-.051.284-.018.094-.035.179-.049.268-.067.39-.104.838.255 1.197a.235.235 0 1 0 .331-.335c-.155-.167-.186-.367-.116-.794Z"/>
</svg>
